X:87
T:Sligo Maid, The
S:The Session: https://thesession.org/tunes/399#setting399
S:https://JamBuddy.live 2025
C:Traditional
R:reel
K:A
M:4/4
L:1/8
Q:120
|: A2BA (3B^cd ef| gedB AGEF| G2BG dGBG| DEGA BAdB|
! A2BA (3B^cd ef| gedB AGEG| B3G A2GE| DEGA BAA2:| ! |:
eaag a2ga| bgaf gfed| eggf g2ge| dega bgag|
! eaag a2ga| bgaf gfed| eg (3gfg edBA| dBgB BAA2:|

